src/xmb/retrosystem/LeapFrog - Leapster Learning Game System-content.svg

<?xml version="1.0" encoding="UTF-8" standalone="no"?>
<svg
   xmlns:dc="http://purl.org/dc/elements/1.1/"
   xmlns:cc="http://creativecommons.org/ns#"
   xmlns:rdf="http://www.w3.org/1999/02/22-rdf-syntax-ns#"
   xmlns:svg="http://www.w3.org/2000/svg"
   xmlns="http://www.w3.org/2000/svg"
   xmlns:sodipodi="http://sodipodi.sourceforge.net/DTD/sodipodi-0.dtd"
   xmlns:inkscape="http://www.inkscape.org/namespaces/inkscape"
   viewBox="0 0 341.33334 341.33334"
   height="256"
   width="256"
   xml:space="preserve"
   id="svg2"
   version="1.1"
   sodipodi:docname="LeapFrog - Leapster Learning Game System-content.svg"
   inkscape:version="0.92.2 (5c3e80d, 2017-08-06)"
   inkscape:export-filename="C:\Users\Alfre\AppData\Roaming\RetroArch\assets\xmb\custom\png\LeapFrog - Leapster Learning Game System-content.png"
   inkscape:export-xdpi="96"
   inkscape:export-ydpi="96"><sodipodi:namedview
     pagecolor="#ffffff"
     bordercolor="#666666"
     borderopacity="1"
     objecttolerance="10"
     gridtolerance="10"
     guidetolerance="10"
     inkscape:pageopacity="0"
     inkscape:pageshadow="2"
     inkscape:window-width="1920"
     inkscape:window-height="1001"
     id="namedview26"
     showgrid="false"
     inkscape:pagecheckerboard="true"
     inkscape:zoom="1.9555921"
     inkscape:cx="-13.018975"
     inkscape:cy="187.78697"
     inkscape:window-x="-9"
     inkscape:window-y="-9"
     inkscape:window-maximized="1"
     inkscape:current-layer="svg2"
     showguides="false" /><metadata
     id="metadata8"><rdf:RDF><cc:Work
         rdf:about=""><dc:format>image/svg+xml</dc:format><dc:type
           rdf:resource="http://purl.org/dc/dcmitype/StillImage" /><dc:title /></cc:Work></rdf:RDF></metadata><defs
     id="defs6"><clipPath
       id="clipPath18"
       clipPathUnits="userSpaceOnUse"><path
         id="path16"
         d="M 0,256 H 256 V 0 H 0 Z" /></clipPath><clipPath
       id="clipPath26"
       clipPathUnits="userSpaceOnUse"><path
         id="path24"
         d="M 4,212 H 252 V 44 H 4 Z" /></clipPath></defs><g
     id="g22"
     transform="matrix(1.3333333,0,0,-1.3333333,0,341.33333)" /><path
     id="path38"
     style="fill:#40508f;fill-opacity:1;fill-rule:nonzero;stroke:none;stroke-width:1.33333325"
     d="M 165.33333,69.333337 C 95.999998,69.333337 16,96.000003 16,96.000003 V 272 H 325.33333 V 96.000003 c 0,0 -90.66667,-26.666666 -160,-26.666666"
     inkscape:connector-curvature="0" /><path
     style="fill:#e6e6e6;fill-opacity:1;fill-rule:nonzero;stroke:none;stroke-width:0.99999994"
     d="M 128 64 C 107.82901 64 86.247002 66.825563 68 70.101562 L 68 192 L 128 192 L 184 192 L 188 192 L 232 192 L 232 80 C 232 80 213.16878 74.625055 188 70.105469 L 188 70.101562 C 187.64698 70.038182 187.27345 69.979042 186.91797 69.916016 C 185.94756 69.74396 184.98781 69.569324 184 69.400391 L 184 69.414062 C 166.63772 66.443435 146.72826 64 128 64 z "
     transform="scale(1.3333334)"
     id="path42" /><path
     id="path50"
     style="fill:#cccccc;fill-opacity:1;fill-rule:nonzero;stroke:none;stroke-width:1.33333325"
     d="M 31.999999,106.66667 V 256 H 95.999997 V 92.533337 c -36.206665,6.192 -63.999998,14.133333 -63.999998,14.133333"
     inkscape:connector-curvature="0" /><rect
     style="opacity:1;vector-effect:none;fill:#000080;fill-opacity:1;stroke:none;stroke-width:1.06666672;stroke-linecap:butt;stroke-linejoin:miter;stroke-miterlimit:4;stroke-dasharray:none;stroke-dashoffset:0;stroke-opacity:1"
     id="rect832"
     width="213.33336"
     height="50.653126"
     x="96.000008"
     y="205.34688"
     ry="0.48516273" /><text
     xml:space="preserve"
     style="font-style:normal;font-variant:normal;font-weight:bold;font-stretch:normal;font-size:22.24333572px;line-height:1.25;font-family:sans-serif;-inkscape-font-specification:'sans-serif Bold';letter-spacing:0px;word-spacing:0px;fill:#000080;fill-opacity:1;stroke:none;stroke-width:0.56392354;stroke-miterlimit:4;stroke-dasharray:none;"
     x="-243.35468"
     y="70.36705"
     id="text836"
     transform="matrix(0,-1.0045325,0.99548792,0,0,0)"><tspan
       sodipodi:role="line"
       id="tspan834"
       x="-243.35468"
       y="70.36705"
       style="font-style:normal;font-variant:normal;font-weight:bold;font-stretch:normal;font-family:sans-serif;-inkscape-font-specification:'sans-serif Bold';fill:#000080;stroke:none;stroke-width:0.56392354;stroke-miterlimit:4;stroke-dasharray:none;fill-opacity:1;">LIBRETRO</tspan></text>
<g
     id="g872"
     transform="translate(4.0376754,-8.4527391)"><g
       transform="matrix(1.3333333,0,0,-1.3333333,161.29535,247.12598)"
       id="g102"><path
         id="path104"
         style="fill:#ffffff;fill-opacity:1;fill-rule:nonzero;stroke:none"
         d="M 0,0 14.062,12 V 6.757 L 20.009,12 V 3.946 c 0,0 4.088,7.676 4.336,7.676 0.248,0 9.726,-0.054 9.726,-0.054 L 32.522,8.757 H 26.885 L 26.08,7.243 h 3.159 L 27.381,4.108 H 24.965 L 24.283,2.865 h 11.398 l 0.744,1.189 h -5.699 l 4.398,7.622 h 9.911 L 43.301,8.703 h -5.637 l -0.929,-1.46 h 5.823 L 38.469,0 H 15.735 L 15.858,3.892 11.336,0 11.15,3.946 6.628,0 Z"
         inkscape:connector-curvature="0" /></g><g
       transform="matrix(1.3333333,0,0,-1.3333333,221.34254,231.7025)"
       id="g106"><path
         id="path108"
         style="fill:#ffffff;fill-opacity:1;fill-rule:nonzero;stroke:none"
         d="M 0,0 C 0,0 -0.044,0 -0.121,0.001 L -1.215,-2.205 Z"
         inkscape:connector-curvature="0" /></g><g
       transform="matrix(1.3333333,0,0,-1.3333333,233.64934,235.52238)"
       id="g110"><path
         id="path112"
         style="fill:#ffffff;fill-opacity:1;fill-rule:nonzero;stroke:none"
         d="m 0,0 1.735,2.973 h -9.912 l -4.398,-7.622 h 5.699 l -0.743,-1.189 h -5.493 l -1.684,-2.865 h 9.964 l 4.089,7.244 H -6.566 L -5.637,0 Z"
         inkscape:connector-curvature="0" /></g></g></svg>

<svg xmlns="http://www.w3.org/2000/svg" xml:space="preserve" width="256" height="256" viewBox="0 0 341.333 341.333"><path d="M165.333 69.333C96 69.333 16 96 16 96v176h309.333V96s-90.666-26.667-160-26.667" style="fill:#40508f;fill-opacity:1;fill-rule:nonzero;stroke:none;stroke-width:1.33333325"/><path d="M128 64c-20.171 0-41.753 2.826-60 6.102V192h164V80s-18.831-5.375-44-9.895v-.003c-.353-.064-.727-.123-1.082-.186-.97-.172-1.93-.347-2.918-.516v.014C166.638 66.444 146.728 64 128 64" style="fill:#e6e6e6;fill-opacity:1;fill-rule:nonzero;stroke:none;stroke-width:.99999994" transform="scale(1.33333)"/><path d="M32 106.667V256h64V92.533c-36.207 6.192-64 14.134-64 14.134" style="fill:#ccc;fill-opacity:1;fill-rule:nonzero;stroke:none;stroke-width:1.33333325"/><rect width="213.333" height="50.653" x="96" y="205.347" ry=".485" style="opacity:1;vector-effect:none;fill:navy;fill-opacity:1;stroke:none;stroke-width:1.06666672;stroke-linecap:butt;stroke-linejoin:miter;stroke-miterlimit:4;stroke-dasharray:none;stroke-dashoffset:0;stroke-opacity:1"/><text xml:space="preserve" x="-243.355" y="70.367" style="font-style:normal;font-variant:normal;font-weight:700;font-stretch:normal;font-size:22.24333572px;line-height:1.25;font-family:sans-serif;-inkscape-font-specification:&quot;sans-serif Bold&quot;;letter-spacing:0;word-spacing:0;fill:navy;fill-opacity:1;stroke:none;stroke-width:.56392354;stroke-miterlimit:4;stroke-dasharray:none" transform="matrix(0 -1.00453 .99549 0 0 0)"><tspan x="-243.355" y="70.367" style="font-style:normal;font-variant:normal;font-weight:700;font-stretch:normal;font-family:sans-serif;-inkscape-font-specification:&quot;sans-serif Bold&quot;;fill:navy;stroke:none;stroke-width:.56392354;stroke-miterlimit:4;stroke-dasharray:none;fill-opacity:1">LIBRETRO</tspan></text><path d="m0 0 14.062 12V6.757L20.009 12V3.946s4.088 7.676 4.336 7.676 9.726-.054 9.726-.054l-1.549-2.811h-5.637l-.805-1.514h3.159l-1.858-3.135h-2.416l-.682-1.243h11.398l.744 1.189h-5.699l4.398 7.622h9.911l-1.734-2.973h-5.637l-.929-1.46h5.823L38.469 0H15.735l.123 3.892L11.336 0l-.186 3.946L6.628 0Z" style="fill:#fff;fill-opacity:1;fill-rule:nonzero;stroke:none" transform="matrix(1.33333 0 0 -1.33333 165.333 238.673)"/><path d="m0 0-.121.001-1.094-2.206Z" style="fill:#fff;fill-opacity:1;fill-rule:nonzero;stroke:none" transform="matrix(1.33333 0 0 -1.33333 225.38 223.25)"/><path d="m0 0 1.735 2.973h-9.912l-4.398-7.622h5.699l-.743-1.189h-5.493l-1.684-2.865h9.964l4.089 7.244h-5.823L-5.637 0Z" style="fill:#fff;fill-opacity:1;fill-rule:nonzero;stroke:none" transform="matrix(1.33333 0 0 -1.33333 237.687 227.07)"/></svg>
